packages/kaspersky-hexa-ui-icons/src/iconsSVGs/16x12/FlagCn.svg

<svg width="16" height="12" viewBox="0 0 16 12" fill="none" xmlns="http://www.w3.org/2000/svg">
<g clip-path="url(#clip0_41813_1908)">
<mask id="mask0_41813_1908" style="mask-type:luminance" maskUnits="userSpaceOnUse" x="0" y="0" width="16" height="12">
<rect width="16" height="12" rx="2" fill="white"/>
</mask>
<g mask="url(#mask0_41813_1908)">
<rect width="16" height="12" fill="#F1361D"/>
<path d="M6.84021 6.68329L7.1488 7.17548L6.58728 7.18231L6.11853 7.50653L6.11169 6.91669L5.8031 6.4245L6.36462 6.41766L6.83435 6.09344L6.84021 6.68329ZM7.68494 4.80634L8.24353 4.74091L7.99451 5.26923L8.05603 5.85516L7.5531 5.59344L6.99451 5.65887L7.24353 5.13055L7.18201 4.54462L7.68494 4.80634ZM7.98669 3.09637L8.27869 3.60028L7.71716 3.58661L7.23767 3.89325L7.25134 3.30341L6.95935 2.7995L7.52087 2.81317L8.00037 2.50751L7.98669 3.09637ZM6.64294 1.24091L7.19666 1.33954L6.81873 1.77509L6.724 2.35614L6.30896 1.95966L5.75623 1.86005L6.13416 1.4245L6.22791 0.843445L6.64294 1.24091Z" fill="#FFDC42"/>
<path fill-rule="evenodd" clip-rule="evenodd" d="M3.80952 4.93598L2.46601 5.94162L2.96172 4.28922L1.63567 3.25833L3.28555 3.24274L3.80952 1.59998L4.33349 3.24274L5.98336 3.25833L4.65732 4.28922L5.15303 5.94162L3.80952 4.93598Z" fill="#FFDC42"/>
</g>
</g>
<defs>
<clipPath id="clip0_41813_1908">
<rect width="16" height="12" fill="white"/>
</clipPath>
</defs>
</svg>

<svg xmlns="http://www.w3.org/2000/svg" width="16" height="12" fill="none" viewBox="0 0 16 12"><g clip-path="url(#a)"><mask id="b" width="16" height="12" x="0" y="0" maskUnits="userSpaceOnUse" style="mask-type:luminance"><rect width="16" height="12" fill="#fff" rx="2"/></mask><g mask="url(#b)"><path fill="#f1361d" d="M0 0h16v12H0z"/><path fill="#ffdc42" d="m6.8402 6.6833.3086.4922-.5615.0068-.4688.3242-.0068-.5898-.3086-.4922.5615-.0068.4697-.3243zm.8447-1.877.5586-.0654-.249.5283.0615.586-.5029-.2618-.5586.0655.249-.5283-.0615-.586zm.3018-1.71.292.504-.5615-.0137-.4795.3067.0136-.5899-.292-.5039.5616.0137.4795-.3057zM6.6429 1.241l.5538.0986-.378.4356-.0947.581-.415-.3964-.5528-.0997.378-.4355.0937-.581z"/><path fill="#ffdc42" fill-rule="evenodd" d="M3.8095 4.936 2.466 5.9416l.4957-1.6524-1.326-1.0309 1.6499-.0156.524-1.6427.5239 1.6427 1.6499.0156-1.326 1.031.4956 1.6523z" clip-rule="evenodd"/></g></g><defs><clipPath id="a"><path fill="#fff" d="M0 0h16v12H0z"/></clipPath></defs></svg>
